rospo-icon-theme-classic-common/64x64/apps/pia-manager.svg

<svg height="64" viewBox="0 0 64 64" width="64" xmlns="http://www.w3.org/2000/svg"><rect height="26" opacity=".2" rx="3" ry="2.889" width="12" x="8" y="25"/><rect height="26" opacity=".2" rx="3" ry="2.889" width="12" x="44" y="25"/><path d="m16.769231 25h30.461537 2.769232v33.2c0 1.5512-1.235078 2.8-2.769232 2.8h-9.692306l-4.153846-6h-2.769232l-4.153846 6h-9.692307c-1.534153 0-2.76923-1.2488-2.76923-2.8v-33.2z" opacity=".2"/><rect fill="#358334" height="26" rx="3" ry="2.889" width="12" x="44" y="24"/><path d="m47 24c-1.662 0-3 1.290181-3 2.890625v1c0-1.600444 1.338-2.890625 3-2.890625h6c1.662 0 3 1.290181 3 2.890625v-1c0-1.600444-1.338-2.890625-3-2.890625z" fill="#fff" opacity=".1"/><rect fill="#358334" height="26" rx="3" ry="2.889" width="12" x="8" y="24"/><path d="m11 24c-1.662 0-3 1.290181-3 2.890625v1c0-1.600444 1.338-2.890625 3-2.890625h6c1.662 0 3 1.290181 3 2.890625v-1c0-1.600444-1.338-2.890625-3-2.890625z" fill="#fff" opacity=".1"/><path d="m16.769231 24h30.461537 2.769232v33.2c0 1.5512-1.235078 2.8-2.769232 2.8h-9.692306l-4.153846-6h-2.769232l-4.153846 6h-9.692307c-1.534153 0-2.76923-1.2488-2.76923-2.8v-33.2z" fill="#50b24e"/><ellipse cx="32" cy="22.2" fill="#50b24e" rx="18" ry="18.2"/><path d="m32 11c-6.627416 0-12 4.775629-12 10.666666.0048.446022.04094 2.891342.1084 3.333334h23.786132c.06648-.442048.101704-2.887366.105468-3.333334 0-5.891037-5.372584-10.666666-12-10.666666z" opacity=".2"/><path d="m32 10c-6.627416 0-12 4.775629-12 10.666666.0048.446022.04094 2.891342.1084 3.333334h23.786132c.06648-.442048.101704-2.887366.105468-3.333334 0-5.891037-5.372584-10.666666-12-10.666666z" fill="#fff"/><circle cx="27" cy="18" fill="#3f3f3f" r="3"/><path d="m32 30c-2.761424 0-5 2.238576-5 5v2h-1.666016c-.738668 0-1.333984.808181-1.333984 1.599609v8.972657c0 .79143.595316 1.427734 1.333984 1.427734h13.332032c.738666 0 1.333984-.636304 1.333984-1.427734v-8.972657c0-.791428-.601368-1.693959-1.333984-1.599609h-1.666016v-2c0-2.761424-2.238576-5-5-5zm0 2c1.656854 0 3 1.343146 3 3v1.960938s-.08208.0362-.08789.03906l-5.91211.000002v-2c0-1.656854 1.343146-3 3-3z" opacity=".2"/><path d="m32 29c-2.761424 0-5 2.238576-5 5v2h-1.666016c-.738668 0-1.333984.808181-1.333984 1.599609v8.972657c0 .79143.595316 1.427734 1.333984 1.427734h13.332032c.738666 0 1.333984-.636304 1.333984-1.427734v-8.972657c0-.791428-.601368-1.693959-1.333984-1.599609h-1.666016v-2c0-2.761424-2.238576-5-5-5zm0 2c1.656854 0 3 1.343146 3 3v1.960938s-.08208.0362-.08789.03906l-5.91211.000002v-2c0-1.656854 1.343146-3 3-3z" fill="#fff"/><circle cx="37" cy="18" fill="#3f3f3f" r="3"/><path d="m32 4a18 18.200001 0 0 0 -18 18.199219 18 18.200001 0 0 0  .017578.484375 18 18.200001 0 0 1 17.982422-17.683594 18 18.200001 0 0 1 17.974609 17.693359 18 18.200001 0 0 0  .025391-.49414 18 18.200001 0 0 0 -18-18.199219z" fill="#fff" opacity=".2"/></svg>

<svg xmlns="http://www.w3.org/2000/svg" width="64" height="64" version="1.1" viewBox="0 0 64 64">
 <rect style="opacity:0.2" width="12" height="26" x="8" y="25" rx="3" ry="2.889"/>
 <rect style="opacity:0.2" width="12" height="26" x="44" y="25" rx="3" ry="2.889"/>
 <path style="opacity:0.2" d="M 16.769231,25 47.230768,25 50,25 50,58.2 c 0,1.5512 -1.235078,2.8 -2.769232,2.8 l -9.692306,0 -4.153846,-6 -2.769232,0 -4.153846,6 -9.692307,0 c -1.534153,0 -2.76923,-1.2488 -2.76923,-2.8 l 0,-33.2 z"/>
 <rect style="fill:#358334" width="12" height="26" x="44" y="24" rx="3" ry="2.889"/>
 <path style="opacity:0.1;fill:#ffffff" d="M 47 24 C 45.338 24 44 25.290181 44 26.890625 L 44 27.890625 C 44 26.290181 45.338 25 47 25 L 53 25 C 54.662 25 56 26.290181 56 27.890625 L 56 26.890625 C 56 25.290181 54.662 24 53 24 L 47 24 z"/>
 <rect style="fill:#358334" width="12" height="26" x="8" y="24" rx="3" ry="2.889"/>
 <path style="opacity:0.1;fill:#ffffff" d="M 11 24 C 9.338 24 8 25.290181 8 26.890625 L 8 27.890625 C 8 26.290181 9.338 25 11 25 L 17 25 C 18.662 25 20 26.290181 20 27.890625 L 20 26.890625 C 20 25.290181 18.662 24 17 24 L 11 24 z"/>
 <path style="fill:#50b24e" d="M 16.769231,24 47.230768,24 50,24 50,57.2 c 0,1.5512 -1.235078,2.8 -2.769232,2.8 l -9.692306,0 -4.153846,-6 -2.769232,0 -4.153846,6 -9.692307,0 c -1.534153,0 -2.76923,-1.2488 -2.76923,-2.8 l 0,-33.2 z"/>
 <ellipse style="fill:#50b24e" cx="32" cy="22.2" rx="18" ry="18.2"/>
 <path style="opacity:0.2" d="M 32,11 C 25.372584,11 20,15.775629 20,21.666666 20.0048,22.112688 20.04094,24.558008 20.1084,25 l 23.786132,0 C 43.961012,24.557952 43.996236,22.112634 44,21.666666 44,15.775629 38.627416,11 32,11 Z"/>
 <path style="fill:#ffffff" d="M 32,10 C 25.372584,10 20,14.775629 20,20.666666 20.0048,21.112688 20.04094,23.558008 20.1084,24 l 23.786132,0 C 43.961012,23.557952 43.996236,21.112634 44,20.666666 44,14.775629 38.627416,10 32,10 Z"/>
 <circle style="fill:#3f3f3f" cx="27" cy="18" r="3"/>
 <path style="opacity:0.2" d="m 32,30 c -2.761424,0 -5,2.238576 -5,5 l 0,2 -1.666016,0 C 24.595316,37 24,37.808181 24,38.599609 l 0,8.972657 C 24,48.363696 24.595316,49 25.333984,49 l 13.332032,0 C 39.404682,49 40,48.363696 40,47.572266 l 0,-8.972657 C 40,37.808181 39.398632,36.90565 38.666016,37 L 37,37 37,35 c 0,-2.761424 -2.238576,-5 -5,-5 z m 0,2 c 1.656854,0 3,1.343146 3,3 l 0,1.960938 c 0,0 -0.08208,0.0362 -0.08789,0.03906 L 29,37 29,35 c 0,-1.656854 1.343146,-3 3,-3 z"/>
 <path style="fill:#ffffff" d="m 32,29 c -2.761424,0 -5,2.238576 -5,5 l 0,2 -1.666016,0 C 24.595316,36 24,36.808181 24,37.599609 l 0,8.972657 C 24,47.363696 24.595316,48 25.333984,48 l 13.332032,0 C 39.404682,48 40,47.363696 40,46.572266 l 0,-8.972657 C 40,36.808181 39.398632,35.90565 38.666016,36 L 37,36 37,34 c 0,-2.761424 -2.238576,-5 -5,-5 z m 0,2 c 1.656854,0 3,1.343146 3,3 l 0,1.960938 c 0,0 -0.08208,0.0362 -0.08789,0.03906 L 29,36 29,34 c 0,-1.656854 1.343146,-3 3,-3 z"/>
 <circle style="fill:#3f3f3f" cx="37" cy="18" r="3"/>
 <path style="opacity:0.2;fill:#ffffff" d="M 32 4 A 18 18.200001 0 0 0 14 22.199219 A 18 18.200001 0 0 0 14.017578 22.683594 A 18 18.200001 0 0 1 32 5 A 18 18.200001 0 0 1 49.974609 22.693359 A 18 18.200001 0 0 0 50 22.199219 A 18 18.200001 0 0 0 32 4 z"/>
</svg>
